X: 361
T: Apple Blossom
C:Benny Thomasson
B: jims roots
M:4/4
L:1/8
Q: 1/4=100
K:D
V:1 
%Q:1/8=420
fe|"D"fa2f afbf|afed fded|"Bm"[fB][b2B2][fB] bfbf|afea fdfg|
"D"a^gbg afea|"G"fced BcdB|"A7"AFAd cedB|AFEG "D"FD3|
"D"[fA][a2A2][fA] [a4A4]|(3e/f/g/a (4a/g/f/e d3|"Bm"(3f/g/a/b (3b/a/g/ f4|fbfe dfed|
"D"fazf afbf|"G"afea fded|"A7"BcdA BdBF|EDB,D "D"A,D3|
FAzF AFBA|BAFA Bcd2|(C[D3D3]) DEFD|"A7"EG2C A,ECE|
"D"DDFD A/G/F DF|"G"BAFA BcdB|"A7"afze fafe|dBAG "D"FD3|
FAzFA4|BAFABd3|[ed][f3d3] fafe|"A7"dBAF EDB,G,|
"D"A,D[D2D2] DFED|"G"FAzF BAFA|"A7"fded BcdB|AFEG "D"FD3||
% abcbook-tune_id 6298c245e966f9ea6d1c1f57


% abcbook-boost 0
% abcbook-tablature 
% abcbook-transpose 
% abcbook-lastupdated 1654178373199
% abcbook-soundfonts 
% abcbook-repeats 1


